!!!!SEGMENT: pl-kk--kk-i-6--036-003_anonim--missa-in-defectu-patrem.krn
!!!cenid: 16xx:1013
!!!COM: Anonim
!!!COM-rismid: pe30004985
!!!CDT:
!!!CNT:
!!!OPR: Missa in defectu
!!!OTL: Patrem
!!!OMV: 003
!!!PDT:
!!!AGN: Sacred; Mass
!!!SMS-siglum: PL-Kk
!!!SMS-shelfmark: Kk.I.6
!!!SMS-shelfwork: 036-003 M
!!!SMS-variant:
!!!SMS-altvar:
!!!NIFC-rismid: 1001136224
!!!URL-scan: http://repozytorium.nifc.pl/skany/pl-kk-nut--i-6
!!!ONB-nifc: UWAGA: C (brak), T (skan 0154-0158, s. 112-120), B (skan 0264-0268, s. 110-119) Części Mszy; 1. Kyrie, 2. Et in terra, 3. Patrem, 4. Sanctus, 5. Agnus Dei
**kern	**text	**kern	**text	**kern
*part3	*part3	*part2	*part2	*part1
*staff3	*staff3	*staff2	*staff2	*staff1
*I"Baſsus	*	*I"Tenor.	*	*I"Cantus.
*I'B	*	*I'T	*	*I'S
*clefF4	*	*clefC4	*	*clefC4
*k[]	*	*k[]	*	*k[]
*a:	*	*a:	*	*a:
*M2/1	*	*M2/1	*	*M2/1
*met(C|)	*	*met(C|)	*	*
=1-	=1-	=1-	=1-	=1-
!LO:TX:t=P:problem:przed kluczem inicjał P	!	!LO:TX:t=P:problem:przed kluczem inicjał P	!	!
!	!	!	!	!LO:TX:t=P:problem:brak partii
00r	.	1A	Pa-	0ryy
.	.	2.E/	-trem	.
.	.	4F#X/	o-	.
=2-	=2-	=2-	=2-	=2-
.	.	2G#X/	-mni-	0ryy
.	.	2A/	-po-	.
*	*	*lig	*	*
.	.	1F	-ten-	.
=3-	=3-	=3-	=3-	=3-
*	*	*col	*	*
1r	.	2.E/	.	0ryy
*	*	*Xlig	*	*
!	!	!LO:TX:t=P:problem:♯above	!	!
.	.	4F#X/	.	.
*	*	*Xcol	*	*
!	!	!LO:TX:t=P:problem:♯above	!	!
1E	Pa-	4G#X/	.	.
.	.	2A/	.	.
.	.	4G#/	.	.
=4-	=4-	=4-	=4-	=4-
2.AA/	-trem	2.A/	.	0ryy
4BB/	o-	8G/L	.	.
.	.	8F/J	.	.
2C/	-mni-	2E/	.	.
2D/	-po-	4F/	.	.
.	.	4E/	.	.
=5-	=5-	=5-	=5-	=5-
1BB	-ten-	4D/	.	0ryy
.	.	4C/	.	.
.	.	2D/	.	.
1AA	-tem	1C	-tem	.
=6-	=6-	=6-	=6-	=6-
2r	.	0r	.	0ryy
*2\right	*	*	*	*
2E\	fa-	.	.	.
2E\	-cto-	.	.	.
2D/	-r(em)	.	.	.
=7-	=7-	=7-	=7-	=7-
*lig	*	*	*	*
1C	Cae-	2r	.	0ryy
*	*	*2\right	*	*
.	.	2e\	Fa-	.
1BB	.	2e\	-cto-	.
.	.	2d\	-r(em)	.
*Xlig	*	*	*	*
=8-	=8-	=8-	=8-	=8-
2AA/	-li	1c	Cae-	0ryy
2c\	Fa-	.	.	.
2c\	-cto-	1G	-li	.
2B\	-r(em)	.	.	.
=9-	=9-	=9-	=9-	=9-
!	!	!LO:SIC:v:t=custos B	!	!
4A\	Cae-	1A	&	0ryy
4G\	.	.	.	.
!LO:TX:t=P:problem:♯above	!	!	!	!
4F#X\	.	.	.	.
4E\	.	.	.	.
!	!	!LO:LB:g=original	!	!
!LO:TX:t=P:problem:♯above	!	!	!	!
4D#X\	-li	1B	ter-	.
4BB/	et	.	.	.
(<1E\	ter-	.	.	.
=10-	=10-	=10-	=10-	=10-
.	.	2B\	-ra	0ryy
!LO:TX:t=P:problem:♯below	!	!	!	!
2D#X/)	.	1B	vi-	.
!LO:LB:g=original	!	!	!	!
!LO:TX:t=P:problem:oddech jako rozdzielacz słów:global	!	!	!	!
2E,\	-ra	.	.	.
1E\	Vi-	2G/	-si-	.
=11-	=11-	=11-	=11-	=11-
.	.	2.c\	-bi-	0ryy
2C/	-si-	.	.	.
.	.	4c\	-li-	.
2F\	-bi-	2A/	-um	.
4F\	-li-	1c\	o-	.
4E\	-um	.	.	.
=12-	=12-	=12-	=12-	=12-
2.D/	o-	.	.	0ryy
.	.	2B\	-mni-	.
4D/	-mni-	.	.	.
2C/	-um	1c	-um	.
2C/	&	.	.	.
=13-	=13-	=13-	=13-	=13-
2E\	in-	2G/	Et	0ryy
1G	-ui-	2B\	in-	.
.	.	2d\	-ui-	.
2F\	-ſi-	2A/	-ſi-	.
=14-	=14-	=14-	=14-	=14-
1.E	-bi-	2G#X/	-bi-	0ryy
.	.	1A	-li-	.
2E\	-li-	2G#/	-um	.
=15-	=15-	=15-	=15-	=15-
2AA/	-um	2A/	&	0ryy
1A	Et	1c	in	.
!LO:TX:t=P:problem:♯above	!	!	!	!
2G#X\	in	2B\	u-	.
=16-	=16-	=16-	=16-	=16-
2A\	V-	2c\	-num	0ryy
2F#X\	.	2A/	Do-	.
2G#X\	-num	2B\	.	.
2.A\	Do-	2.c\	.	.
=17-	=17-	=17-	=17-	=17-
.	.	.	.	0ryy
4G\	-mi-	4B\	-mi-	.
!	!	!LO:SIC:v:t=custos B-	!	!
2F#X\	-n(um)	2A/	-num	.
!	!	!LO:LB:g=original	!	!
2.G\	JE-	2.B\	JE-	.
4F#\	.	4A/	-SVM	.
=18-	=18-	=18-	=18-	=18-
2E\	.	(2G/	CHr(i-	0ryy
!LO:SIC:v:t=custos C	!	!	!	!
2D/	-ſum	2F#X/)	.	.
!LO:LB:g=original	!	!	!	!
*lig	*	*	*	*
1C	CHri-	2E/	-s)tum	.
.	.	2.e\	Fi-	.
=19-	=19-	=19-	=19-	=19-
1BB	.	.	.	0ryy
.	.	4e\	-li-	.
.	.	2d\	-um	.
*Xlig	*	*	*	*
2C/	-ſtum	1c	DE-	.
2.c\	Fi-	.	.	.
=20-	=20-	=20-	=20-	=20-
.	.	1G	-I	0ryy
4c\	-li-	.	.	.
2B\	-um	.	.	.
1A	DE-	2r	.	.
.	.	1e\	DE-	.
=21-	=21-	=21-	=21-	=21-
1G#X	-i	.	.	0ryy
.	.	2d\	-I	.
2.A\	V-	4c#X\	V-	.
.	.	4A\	-ni-	.
.	.	1d\	-ge-	.
4A\	-ni-	.	.	.
=22-	=22-	=22-	=22-	=22-
2.A\	-ge-	.	.	0ryy
!	!	!LO:TX:t=P:problem:♯above	!	!
.	.	2c#X\	.	.
4A\	-ni-	.	.	.
2D/	-t(um)	2.d\	.	.
2D/	Et	.	.	.
.	.	4cny\	.	.
=23-	=23-	=23-	=23-	=23-
2GG/	ex	2B\	-ni-	0ryy
1G	P(a-	2G/	-tum	.
.	.	2D/	Et	.
2F#X\	-t)re	1d\	ex	.
=24-	=24-	=24-	=24-	=24-
1E	na-	.	.	0ryy
.	.	2c\	P(a-	.
1F#X	-t(um)	2B\	-t)re	.
.	.	2A/	na-	.
=25-	=25-	=25-	=25-	=25-
1E	an-	1.G	.	0ryy
2D/	-te	.	.	.
!	!	!LO:TX:t=P:problem:♯below	!	!
1D/	an-	4F#X/	.	.
!	!	!LO:SIC:v:t=custos F#	!	!
.	.	4E/	.	.
!	!	!LO:LB:g=original	!	!
=26-	=26-	=26-	=26-	=26-
.	.	2F#X/	-tum	0ryy
2C/	-te	1A	an-	.
2.E\	o-	.	.	.
.	.	2G#X/	-te	.
!LO:SIC:v:t=custos AA	!	!	!	!
4E\	-mni-	.	.	.
!LO:PB:g=original	!	!	!	!
=27-	=27-	=27-	=27-	=27-
2AA/	-a	2c\	o-	0ryy
4F\	sae-	4c\	-mni-	.
4E\	.	4c\	-a	.
4D/	.	2.B\	sa(e)-	.
8C/L	.	.	.	.
8D/J	.	.	.	.
4.E/	.	.	.	.
.	.	4B\	-cu-	.
8E/	-cu-	.	.	.
=28-	=28-	=28-	=28-	=28-
!	!	!LO:N:acc=-	!	!
2AA/	-la	2cn\	-la	0ryy
2A\	DE-	2c\	DE-	.
2G#X\	um	2B\	-(um)	.
2A\	De	2c#X\	De	.
=29-	=29-	=29-	=29-	=29-
1D	DE-	1d	DE-	0ryy
!	!	!LO:N:acc=-	!	!
2A\	-o	2.cn\	-o	.
2AA/	Lu-	.	.	.
.	.	4A/	Lu-	.
=30-	=30-	=30-	=30-	=30-
2BB/	-men	2G/	-men	0ryy
2D/	de	2F#X/	de	.
2.D/	Lu-	2.E/	Lu-	.
4C#X/	-mi-	4E/	-mi-	.
=31-	=31-	=31-	=31-	=31-
2D/	-ne	2F#X/	-ne	0ryy
2BB/	.	2D/	Lu-	.
2Cny/	.	2E/	-men	.
2GG/	de	2G/	de	.
=32-	=32-	=32-	=32-	=32-
2.D/	Lu-	4G/	lu-	0ryy
!	!	!LO:TX:t=P:problem:♯below	!	!
.	.	8F#X/L	.	.
.	.	8E/J	.	.
.	.	4.F#/	.	.
4D/	-mi-	.	.	.
.	.	8F#/	-mi-	.
1GG	-ne	1G	-ne	.
!	!	!LO:PB:g=original	!	!
=33-	=33-	=33-	=33-	=33-
1.G	DE-	1.B	DE-	0ryy
!LO:SIC:v:t=custos A	!	!	!	!
2G\	-(um)	2B\	-um	.
!LO:LB:g=original	!	!	!	!
=34-	=34-	=34-	=34-	=34-
1A	Ve-	1c	Ve-	0ryy
2F#X\	-rum	2A/	-rum	.
2D\	de	2F#X/	de	.
=35-	=35-	=35-	=35-	=35-
2.G\	DE-	4G/	DE-	0ryy
.	.	4A/	.	.
.	.	4B/	.	.
!LO:TX:t=P:problem:♯above	!	!	!	!
4F#X\	.	4A/	.	.
2E\	-o	2G/	.	.
2D/	.	2F#X/	.	.
=36-	=36-	=36-	=36-	=36-
*lig	*	*	*	*
1C	Ve-	2E/	-o	0ryy
.	.	1e	Ve-	.
1BB	.	.	.	.
.	.	2d#X\	.	.
!	!	!LO:TX:t=P:problem:♯above	!	!
*Xlig	*	*	*	*
=37-	=37-	=37-	=37-	=37-
2E\	-ro	2e\	-ro	0ryy
1E	Ge-	1B	Ge-	.
2E\	-ni-	2B\	-ni-	.
=38-	=38-	=38-	=38-	=38-
2A\	-t(um)	2c\	-tum	0ryy
!LO:TX:t=P:problem:♯above	!	!	!	!
2G#X\	n(on)	2B\	n(on)	.
1A	fa-	1A	fa-	.
=39-	=39-	=39-	=39-	=39-
2E\	-ct(um)	1G#X	-ct(um)	0ryy
2E\	Con-	.	.	.
2F#X\	-sub-	1r	.	.
1A\	-stan-	.	.	.
=40-	=40-	=40-	=40-	=40-
.	.	1e	Con-	0ryy
2G\	-ti-	.	.	.
2.F\	-a-	2A/	-sub-	.
.	.	2.f\	-s(tan	.
4F\	-lem	.	.	.
=41-	=41-	=41-	=41-	=41-
0G	Pa-	.	.	0ryy
.	.	4f\	t)i-	.
.	.	4.e\	-a-	.
.	.	8e\	-lem	.
.	.	1d	Pa-	.
=42-	=42-	=42-	=42-	=42-
!	!	!LO:SIC:v:t=custos c	!	!
2C/	-tri	2e\	-tri	0ryy
!	!	!LO:LB:g=original	!	!
!LO:SIC:v:t=custos GG	!	!	!	!
2C/	per	2c\	per	.
!LO:LB:g=original	!	!	!	!
2GG/	quem	2B\	qu(em)	.
*	*ij	*	*ij	*
2G\	per	2G/	per	.
=43-	=43-	=43-	=43-	=43-
2D/	quem	2F#X/	qu(em)	0ryy
*	*Xij	*	*Xij	*
2.D/	o-	2.F#/	o-	.
4D/	-mni-	4F#/	-mni-	.
2C/	-a	2E/	-a	.
=44-	=44-	=44-	=44-	=44-
1.BB	fa-	2D#X/	fa-	0ryy
.	.	1E	.	.
2BB/	-cta	2D#/	-cta	.
=45-	=45-	=45-	=45-	=45-
2E\	sunt	2E/	sunt	0ryy
2E\	qui	2e\	qui	.
1A	pro-	1c	pro-	.
=46-	=46-	=46-	=46-	=46-
2A\	-pter	2c\	-pter	0ryy
2B\	nos	4d\	nos	.
.	.	2d\	ho-	.
2.c\	ho-	.	.	.
.	.	8c\L	.	.
.	.	8B\J	.	.
.	.	4.c\	.	.
4c\	-mi-	.	.	.
.	.	8c\	-mi-	.
=47-	=47-	=47-	=47-	=47-
2G\	-nes	1B	-nes	0ryy
2G\	Et	.	.	.
2F#X\	p(ro)-	1d	Et	.
2D/	-pter	.	.	.
=48-	=48-	=48-	=48-	=48-
2E\	n(o-	2c\	p(ro)-	0ryy
4F#X\	-st)ram	2A/	-pter	.
4F#\	Sa-	.	.	.
1G	-lu-	1B	no-	.
=49-	=49-	=49-	=49-	=49-
2D/	-tem	2A\	-str(am)	0ryy
!LO:SIC:v:t=custos C	!	!	!	!
2D/	Et	2B\	Sa-	.
!LO:LB:g=original	!	!LO:SIC:v:t=custos B	!	!
2C/	p(ro)-	1c	-lu-	.
2AA/	-p(te)r	.	.	.
!	!	!LO:LB:g=original	!	!
=50-	=50-	=50-	=50-	=50-
2BB/	no-	2B\	-tem	0ryy
4C/	-str(am)	1e	Sa-	.
4C/	Sa-	.	.	.
4D/	.	.	.	.
4E\	.	.	.	.
4F\	.	1d\	-lu-	.
4G\	.	.	.	.
=51-	=51-	=51-	=51-	=51-
1A	-lu-	.	.	0ryy
!	!	!LO:TX:t=P:problem:♯above	!	!
.	.	2c#X\	.	.
2D/	-tem	2d\	-tem	.
2D/	de-	2d\	de-	.
=52-	=52-	=52-	=52-	=52-
2.E\	-scen-	4B\	-scen-	0ryy
.	.	4A/	.	.
.	.	4G/	.	.
4D/	.	4F#X/	.	.
2.C/	.	4E/	.	.
.	.	4F#X/	.	.
.	.	4.G/	.	.
4BB/	.	.	.	.
!	!	!LO:TX:t=P:problem:♯below	!	!
.	.	16F#X/LL	.	.
!	!	!LO:TX:t=P:problem:♯below	!	!
.	.	16G#X/JJ	.	.
=53-	=53-	=53-	=53-	=53-
2AA/	-dit	2A/	.	0ryy
2GG#X/	de	2B\	.	.
4AA/	Cae-	2A/	-dit	.
4BB/	.	.	.	.
4C/	.	2A/	de	.
4D/	.	.	.	.
=54-	=54-	=54-	=54-	=54-
4E\	.	4G#X/	C(ae)-	0ryy
!LO:TX:t=P:problem:♯above	!	!	!	!
4F#X\	.	4A/	.	.
!LO:SIC:v:s=4G#	!	!	!	!
4G\	.	4B/	.	.
4E\	.	4G#/	.	.
!LO:TX:t=P:problem:♯above	!	!	!	!
4F#X\	.	1.A	.	.
!LO:SIC:v:s=4G#	!	!	!	!
4G\	.	.	.	.
2A\	.	.	.	.
=55-	=55-	=55-	=55-	=55-
1E	.	.	.	0ryy
.	.	2G#X/	.	.
1AA;	-lis	1A;	-lis	.
!LO:LB:g=original	!	!LO:LB:g=original	!	!
=56||-	=56||-	=56||-	=56||-	=56||-
*M2/1	*	*M2/1	*	*M2/1
*met(C|)	*	*met(C|)	*	*
!LO:TX:t=P:problem:przed kluczem inicjał E	!	!LO:TX:t=P:problem:przed kluczem inicjał E	!	!
1A	Et	1.c	ET	0ryy
2D/	In-	.	.	.
2G\	-car-	2.B/	In-	.
=57-	=57-	=57-	=57-	=57-
2.C/	-na-	.	.	0ryy
.	.	8A/L	.	.
.	.	8G/J	.	.
.	.	2.A/	-car-	.
8BB/L	.	.	.	.
8AA/J	.	.	.	.
2.BB/	.	.	.	.
!	!	!LO:TX:t=P:problem:♯below	!	!
.	.	8G#X/L	.	.
!	!	!LO:TX:t=P:problem:♯below	!	!
.	.	8F#X/J	.	.
.	.	4.G#/	-na-	.
4BB/	-tus	.	.	.
.	.	8G#/	-tus	.
=58-	=58-	=58-	=58-	=58-
1AA	e(st)	2A/	e(st)	0ryy
.	.	2A/	de	.
1r	.	2.d\	Spi-	.
.	.	4d\	-ri-	.
=59-	=59-	=59-	=59-	=59-
1E	de	1G#X	-tu	0ryy
4.F\	Spi-	1.A	San-	.
8F\	-ri-	.	.	.
2C#X/	-tu	.	.	.
=60-	=60-	=60-	=60-	=60-
2D\	San-	.	.	0ryy
2E\	.	2G#X/	.	.
*lig	*	*	*	*
1F#X	.	1.A	.	.
=61-	=61-	=61-	=61-	=61-
1G	.	.	.	0ryy
.	.	2G/	.	.
*Xlig	*	*	*	*
1D	-cto	1F#X	-cto	.
=62-	=62-	=62-	=62-	=62-
!	!	!LO:TX:t=P:problem:♯below	!	!
2.D/	Ex	2.F#X/	Ex	0ryy
4D/	Ma-	4F#/	Ma-	.
2.E\	-ri-	2.G/	-ri-	.
!LO:SIC:v:t=custos F	!	!	!	!
4C/	-a	4E/	-a	.
!LO:LB:g=original	!	!	!	!
=63-	=63-	=63-	=63-	=63-
2.F\	Vir-	2.A/	Vir-	0ryy
4E\	.	4G/	.	.
2D/	.	2F/	-gi-	.
!	!	!LO:SIC:v:t=custos F	!	!
2C#X/	.	2E/	-ne	.
!	!	!LO:LB:g=original	!	!
=64-	=64-	=64-	=64-	=64-
2.D/	.	4F#X/	Vir-	0ryy
.	.	2G/	.	.
4D/	-gi-	4F#/	-gi-	.
2GG/	-ne	1G	-ne	.
2G\	Et	.	.	.
=65-	=65-	=65-	=65-	=65-
2E\	Ho-	2r	.	0ryy
2D/	-mo	2B\	Et	.
4.E\	fa-	2G/	Ho-	.
8E\	-ct(us)	.	.	.
4BB/	e(st)	2F#X/	-mo	.
*	*ij	*	*	*
4BB/	Et	.	.	.
=66-	=66-	=66-	=66-	=66-
2GG#X/	Ho-	2.E/	fa-	0ryy
2AA/	-mi	.	.	.
!	!	!LO:TX:t=P:problem:♯below	!	!
.	.	4F#X/	.	.
!	!	!LO:TX:t=P:problem:♯above	!	!
2.E\	fa-	4G#X/	.	.
.	.	4c\	.	.
.	.	4.B\	.	.
4E\	-ct(us)	.	.	.
.	.	8B\	-ctus	.
=67-	=67-	=67-	=67-	=67-
1AA;	e(st)	1A;	est.	1ryy
*	*Xij	*	*	*
!LO:PB:g=original	!	!	!	!
=68||-	=68||-	=68||-	=68||-	=68||-
*M2/1	*	*M2/1	*	*M2/1
*met(C|)	*	*met(C|)	*	*
!LO:TX:t=P:problem:przed kluczem inicjał C	!	!LO:TX:t=P:problem:przed kluczem inicjał C	!	!
0r	.	00r	.	0ryy
=69-	=69-	=69-	=69-	=69-
1r	.	.	.	0ryy
1.E	Cru-	.	.	.
=70-	=70-	=70-	=70-	=70-
.	.	1r	.	0ryy
2AA/	-ci-	.	.	.
2.F\	-fi-	1.A	Cru-	.
4E\	.	.	.	.
=71-	=71-	=71-	=71-	=71-
2D/	-xus	.	.	0ryy
2C#X/	.	2E/	-ci-	.
1D	.	1F	-fi-	.
=72-	=72-	=72-	=72-	=72-
1AA	.	2E/	-xus	0ryy
.	.	2.A/	e-	.
2r	.	.	.	.
.	.	4A/	-ti-	.
2.E\	e-	4G/	-am	.
.	.	4G/	pro	.
=73-	=73-	=73-	=73-	=73-
*	*	*lig	*	*
.	.	1F#X	no-	0ryy
4E\	-ti-	.	.	.
4D/	-am	.	.	.
4D/	pro	.	.	.
*lig	*	*	*	*
1C	no-	1.E	.	.
*	*	*Xlig	*	*
=74-	=74-	=74-	=74-	=74-
1BB	.	.	.	0ryy
!	!	!LO:SIC:v:t=custos E	!	!
!	!	!LO:TX:t=P:problem:♯below	!	!
.	.	2D#X/	.	.
!	!	!LO:LB:g=original	!	!
*Xlig	*	*	*	*
2E\	-bis	4E/	-bis	.
.	.	4B\	sub	.
4r	.	4.c\	Pon-	.
4E\	ſub	.	.	.
.	.	8B\	-ti-	.
=75-	=75-	=75-	=75-	=75-
4.F\	Pon-	4.A/	-o	0ryy
8E\	-ti-	8G/	sub	.
4D/	-o	4F/	Pon-	.
4C#X/	Pi-	4A/	-ti-	.
*lig	*	*	*	*
1D	-la-	4.A/	-o	.
*	*	*	*ij	*
.	.	8G/	sub	.
.	.	8F/	Pon-	.
.	.	8F/	-ti-	.
.	.	8f\	-o	.
*	*	*	*Xij	*
.	.	8e\	Pi-	.
=76-	=76-	=76-	=76-	=76-
!LO:SIC:v:t=custos C	!	!	!	!
1G	.	8d\	-la-	0ryy
.	.	8G/	.	.
.	.	2c\	.	.
.	.	4B\	.	.
!LO:LB:g=original	!	!	!	!
*Xlig	*	*	*	*
2C/	-to	1c	-to	.
1C/	paſ-	.	.	.
=77-	=77-	=77-	=77-	=77-
.	.	1F	paſ-	0ryy
1BB	-sus	.	.	.
.	.	2E/	-s(us)	.
!	!	!LO:TX:t=P:problem:♯below	!	!
1AA/	et	4F#X/	et	.
.	.	4E/	se-	.
=78-	=78-	=78-	=78-	=78-
!	!	!LO:SIC:v:s=2D#	!	!
.	.	2D/	-pul-	0ryy
2GG/	ſe-	1E	.	.
2.BB/	-pul-	.	.	.
!	!	!LO:SIC:v:s=2D#	!	!
.	.	2D/	-t(us)	.
4BB/	-tus	.	.	.
=79-	=79-	=79-	=79-	=79-
1E;<	e(st)	1E;	e(st)	1ryy
!	!	!LO:PB:g=original	!	!
=80||-	=80||-	=80||-	=80||-	=80||-
*M3/1	*	*M3/1	*	*M3/1
1E	Et	1G#X	Et	1%3ryy
1E	re-	1G#	re-	.
1A	-ſur-	1A	-ſur-	.
=81-	=81-	=81-	=81-	=81-
*col	*	*	*	*
0G	-re-	0B	-re-	1%3ryy
*Xcol	*	*	*	*
1E	-xit	1c	-xit	.
=82-	=82-	=82-	=82-	=82-
1.F	ter-	1.A	ter-	1%3ryy
2F\	-ti-	2A\	-ti-	.
1D	-a	1B	-a	.
=83-	=83-	=83-	=83-	=83-
1C	di-	1c	di-	1%3ryy
1C	-e	1c	-e	.
1GG	ſe-	1B	se-	.
=84-	=84-	=84-	=84-	=84-
1.AA	-cun-	1.A	-cun-	1%3ryy
2AA/	-d(um)	2A/	-dum	.
!LO:TX:t=P:problem:♯above	!	!LO:TX:t=P:problem:♯above	!	!
1E	ſcri-	1G#X	ſcri-	.
=85-	=85-	=85-	=85-	=85-
!LO:SIC:v:t=custos E	!	!	!	!
0.F	-ptu-	0.A	-ptu-	1%3ryy
!LO:LB:g=original	!	!	!	!
=86-	=86-	=86-	=86-	=86-
*M2/1	*	*M2/1	*	*M2/1
*met(C|)	*	*met(C|)	*	*
!	!	!LO:TX:t=P:problem:♯above	!	!
2E\	-ras	2G#X/	-ras	0ryy
4r	.	4r	.	.
!	!	!LO:TX:t=P:problem:♯below	!	!
8.E\	e(t)	8.G#/	Et	.
16E\	a-	16G#/	a-	.
4A\	-ſcen-	4c\	-scen-	.
8F#X\	-dit	8A/	-dit	.
!	!	!LO:TX:t=P:problem:♯below	!	!
8D/	in	8F#X/	in	.
4.G\	C(ae)-	4.B/	C(ae)-	.
!	!	!LO:SIC:v:t=custos G	!	!
8F#\L	.	8A/	.	.
!	!	!LO:LB:g=original	!	!
=87-	=87-	=87-	=87-	=87-
8E\	.	8G/L	.	0ryy
!	!	!LO:TX:t=P:problem:♯below	!	!
8D\J	.	8F#/J	.	.
4E\	.	4G/	.	.
!	!	!LO:TX:t=P:problem:♯below	!	!
4D/	-l(um)	2F#/	-lum	.
4D/	ſe-	.	.	.
4BB/	-det	4r	.	.
4GG/	ad	4G/	ſe-	.
4.C/	dex-	8E/	-det	.
.	.	8C/	ad	.
.	.	4.E/	dex-	.
8C/	-te-	.	.	.
=88-	=88-	=88-	=88-	=88-
4AA/	-r(am)	.	.	0ryy
.	.	8F/J	.	.
4BB/	.	4G/	-te-	.
4C/	Pa-	4G/	-r(am)	.
!	!	!LO:TX:t=P:problem:♯below	!	!
4D/	.	4F#X/	P(a-	.
2GG/	-tris	2G/	-t)ris	.
2G\	Et	2B\	Et	.
=89-	=89-	=89-	=89-	=89-
4.A\	I-	4.c\	I-	0ryy
8G\	-te-	8B\	-te-	.
4F#X\	-r(um)	4A/	-r(um)	.
!LO:SIC:v:t=custos G	!	!	!	!
4F#\	Ven-	4A/	Ven-	.
!LO:LB:g=original	!	!	!	!
4.G\	-tu-	4.B\	-tu-	.
8Fny\	-r(us)	8B\	-r(us)	.
4E\	e(st)	4c#X\	e(st)	.
4D/	cum	4d\	cum	.
=90-	=90-	=90-	=90-	=90-
4.A\	glo-	4.d\	glo-	0ryy
!	!	!LO:TX:t=P:problem:♯above	!	!
8AA/	-ri-	8c#X\	-ri-	.
4D\	-a	4d\	-a	.
8.D\	iu-	4.d\	iu-	.
16D\	-di-	.	.	.
4.E\	-ca-	.	.	.
.	.	8d\	-di-	.
.	.	2cny\	-ca-	.
8F\	.	.	.	.
4G\	.	.	.	.
4G\	-re	2B\	-re	.
=91-	=91-	=91-	=91-	=91-
2C/	Vi-	.	.	0ryy
!	!	!LO:SIC:v:t=custos F#	!	!
.	.	4A/	Vi-	.
!	!	!LO:LB:g=original	!	!
4D/	-uos	4F#X/	-uos	.
4E-X\	e(t)	4G/	&	.
2C/	mor-	4G/	mor-	.
!	!	!LO:TX:t=P:problem:♯below	!	!
.	.	8F#X/L	.	.
.	.	8E/J	.	.
4.D/	.	4.F#/	.	.
8D/	-tu-	8F#/	-tu-	.
=92-	=92-	=92-	=92-	=92-
2GG/	-os	2G/	-os	0ryy
4G\	Cu-	2r	.	.
4D/	-i(us)	.	.	.
2F\	Re-	4r	.	.
.	.	4A/	Cu-	.
2C/	-gni	4E/	-ius	.
.	.	4.G/	re-	.
=93-	=93-	=93-	=93-	=93-
4GG/	n(on)	.	.	0ryy
.	.	16F/LL	.	.
.	.	16E/JJ	.	.
8BB/L	E-	8D/L	.	.
8C/	.	8E/J	.	.
8D/	.	8F/L	.	.
8E/	.	8G/	.	.
8F/	.	8A/	.	.
!LO:SIC:v:t=custos A	!	!	!	!
8G/J	.	8B/J	.	.
!LO:LB:g=original	!	!LO:TX:t=P:problem:♯above	!	!
4.A\	.	4c#X\	.	.
.	.	8A\	-gni	.
8A\	-rit	8B\	n(on)	.
!	!	!LO:TX:t=P:problem:♯above	!	!
2A\	fi-	8c#\	e-	.
.	.	8A\	-rit	.
.	.	4d\	fi-	.
=94-	=94-	=94-	=94-	=94-
!	!	!LO:TX:t=P:problem:♯above	!	!
2A\	-nis	2c#X\	-nis	1ryy
2r	.	2r	.	.
=95-	=95-	=95-	=95-	=95-
*M3/1	*	*M3/1	*	*M3/1
1r	.	1r	.	1%3ryy
!	!	!LO:TX:t=P:problem:♯above	!	!
1A	Et	1c#X	Et	.
!	!	!LO:SIC:v:t=custos B	!	!
1F	in	1d	in	.
!	!	!LO:LB:g=original	!	!
=96-	=96-	=96-	=96-	=96-
1.G	ſpi-	1.B	ſ(pi-	1%3ryy
2G\	-ri-	2B\	-ri-	.
1E	-t(um)	1c	-t)um	.
=97-	=97-	=97-	=97-	=97-
2F\	San-	2A/	San-	1%3ryy
2E\	.	2G/	.	.
2F\	.	2A/	.	.
2G\	.	2B\	.	.
1A	.	1.c	.	.
=98-	=98-	=98-	=98-	=98-
1E	-ctum	.	.	1%3ryy
.	.	2c\	-ctum	.
1.G	Do-	1.c	D(o-	.
2G\	-mi-	2B\	-mi)-	.
=99-	=99-	=99-	=99-	=99-
1C	-n(um)	1c	-num	1%3ryy
*col	*	*	*	*
0C	&	0c	&	.
=100-	=100-	=100-	=100-	=100-
1GG	Vi-	1B	Vi-	1%3ryy
0AA	-ui-	0A	-ui-	.
*Xcol	*	*	*	*
=101-	=101-	=101-	=101-	=101-
1BB	-fi-	1G	-fi-	1%3ryy
*lig	*	*lig	*	*
1C	-can-	1G	-can-	.
!LO:SIC:v:t=custos GG	!	!LO:TX:t=P:problem:♯above	!	!
1D	.	1F#X	.	.
*Xlig	*	*Xlig	*	*
!LO:LB:g=original	!	!	!	!
=102-	=102-	=102-	=102-	=102-
1GG	-tem	1G	-tem	1%3ryy
1GG	qui	1r	.	.
1AA	ex	1r	.	.
=103-	=103-	=103-	=103-	=103-
0BB	P(a-	0D	qui	1%3ryy
1C	-t)re	1E	ex	.
=104-	=104-	=104-	=104-	=104-
!	!	!LO:TX:t=P:problem:♯above	!	!
1.D	Fi-	0F#X	P(a-	1%3ryy
2D/	-li-	.	.	.
!	!	!LO:TX:t=P:problem:♯above	!	!
1BB	-o-	1G#X	-t)re	.
=105-	=105-	=105-	=105-	=105-
2AA/	-q(ue)	1A	Fi-	1%3ryy
2GG/	.	.	.	.
2AA/	.	2A/	-li-	.
2BB/	.	2A/	-o-	.
!	!	!LO:SIC:v:t=custos G	!	!
1C	.	1G	-q(ue)	.
!	!	!LO:LB:g=original	!	!
=106-	=106-	=106-	=106-	=106-
1GG	pro-	1G	pro-	1%3ryy
*lig	*	*	*	*
!	!	!LO:TX:t=P:problem:♯above	!	!
1AA	-ce-	0F#X	-ce-	.
1BB	.	.	.	.
*Xlig	*	*	*	*
=107-	=107-	=107-	=107-	=107-
!	!	!LO:TX:t=P:problem:♯above	!	!
1E	-dit	1G#X	-dit	1%3ryy
1C	qui	1c	qui	.
1BB	cum	1d	cum	.
=108-	=108-	=108-	=108-	=108-
1C	Pa-	1c	Pa-	1%3ryy
1AA	-tre	1c	-tre	.
1C	&	1c	Et	.
=109-	=109-	=109-	=109-	=109-
1.GG	Fi-	1.B	Fi-	1%3ryy
2GG/	-li-	2B\	-li-	.
1GG	-o	1B	-o	.
=110-	=110-	=110-	=110-	=110-
0G	Si-	0B	Si-	1%3ryy
!LO:SIC:v:t=custos G	!	!	!	!
1F#X	-mul	1A	-mul	.
!LO:PB:g=original	!	!	!	!
=111-	=111-	=111-	=111-	=111-
1.G	a-	1.B	a-	1%3ryy
2D/	-do-	2d\	-do-	.
!	!	!LO:TX:t=P:problem:♯below	!	!
1A	-ra-	1c#X	-ra-	.
=112-	=112-	=112-	=112-	=112-
0D	-tur	1d	-tur	1%3ryy
.	.	1A	Et	.
1BB	&	2B/	con-	.
.	.	2A/	-glo-	.
=113-	=113-	=113-	=113-	=113-
1.C	con-	1.G	-ri-	1%3ryy
2AA/	-glo-	2A/	.	.
1BB	-ri-	1F#X	-fi-	.
=114-	=114-	=114-	=114-	=114-
1FF#X	-fi-	(1A	-ca-	1%3ryy
!	!	!LO:SIC:v:t=custos F#	!	!
0AA	-ca-	0E)	.	.
!	!	!LO:LB:g=original	!	!
=115-	=115-	=115-	=115-	=115-
*M2/1	*	*M2/1	*	*M2/1
*met(C|)	*	*met(C|)	*	*
2D/	-tur	4F#X/	-tur	0ryy
.	.	4A/	qui	.
2D/	qui	4D/	lo-	.
.	.	4.d\	-cu-	.
4GG/	Lo-	.	.	.
.	.	8c\	-tus	.
4.G\	-cu-	4B\	e(st)	.
.	.	4.e\	per	.
8Fn\	-tus	.	.	.
4E\	e(st)	.	.	.
.	.	8d\	.	.
=116-	=116-	=116-	=116-	=116-
2.F\	per	8c\L	.	0ryy
.	.	8B\J	.	.
.	.	4.A/	.	.
.	.	8B\L	.	.
4A\	Pro-	8c\	.	.
.	.	8A\J	.	.
1G	-phe-	8B\	.	.
.	.	8G/	Pro-	.
.	.	2c\	-phe-	.
.	.	4B\	.	.
=117-	=117-	=117-	=117-	=117-
4C/	-tas	2c\	-tas	0ryy
4c\	Et	.	.	.
4B\	V-	2r	.	.
4G\	-n(am)	.	.	.
4A\	S[an-	2c\	Et	.
8G\	-ctam]	.	.	.
!LO:SIC:v:t=custos G	!	!	!	!
8F\	Ca-	.	.	.
!LO:LB:g=original	!	!	!	!
4.G\	-tho-	4B\	V-	.
.	.	4G/	-n(am)	.
8G\	-li-	.	.	.
=118-	=118-	=118-	=118-	=118-
4F\	-cam	4A/	S[an-	0ryy
*	*ij	*	*	*
4F\	Ca-	8G/	-ctam]	.
.	.	8F/	Ca-	.
4.C/	-tho-	8G/L	-tho-	.
!	!	!LO:TX:t=P:problem:♯below	!	!
.	.	8F#X/	.	.
.	.	8G/	.	.
8C/	-li-	8A/J	.	.
4GG/	-cam	2B\	.	.
*	*Xij	*	*	*
4G\	Et	.	.	.
4G\	A-	4.A/	.	.
4F#X\	-po-	.	.	.
!	!	!LO:SIC:v:t=custos G	!	!
.	.	8A/	-li-	.
!	!	!LO:PB:g=original	!	!
=119-	=119-	=119-	=119-	=119-
4.G\	-sto-	4G/	-cam	0ryy
.	.	4d\	&	.
8F\	.	.	.	.
4.E\	.	4d\	A-	.
!	!	!LO:TX:t=P:problem:♯above	!	!
.	.	4c#X\	-po-	.
8E\	-li-	.	.	.
2D\	-cam	4.d\	-sto-	.
.	.	8c#\	.	.
2E\	Et	4.B\	.	.
.	.	8B\	li-	.
=120-	=120-	=120-	=120-	=120-
4.C#X/	A-	4E/	-c(am)	0ryy
.	.	4e\	Ec-	.
8C#/	-po-	.	.	.
4.D/	-sto-	8.d\L	.	.
.	.	16c\K	.	.
.	.	8B\	.	.
8D/	-li-	8A\J	.	.
4E\	-cam	8G#X/L	-cle-	.
.	.	8E/J	.	.
4AA/	Ec-	2A/	.	.
4.E\	-cle-	.	.	.
!	!	!LO:TX:t=P:problem:♯below	!	!
.	.	4G#X/	-ſi-	.
8E\	-ſi-	.	.	.
=121-	=121-	=121-	=121-	=121-
2AA/	-am	2A/	-am	0ryy
!LO:SIC:v:t=custos F	!	!	!	!
2F\	Con-	2A/	Con-	.
!LO:LB:g=original	!	!	!	!
2.F\	-fi-	2.G/	-fi-	.
4E\	-te-	4G/	-te-	.
=122-	=122-	=122-	=122-	=122-
2F\	-or	2F/	-or	0ryy
2E\	v-	2G/	v-	.
2D/	-num	2F/	-n(um)	.
2C/	Bap-	2E/	Bap-	.
=123-	=123-	=123-	=123-	=123-
1BB-X	-ti-	1D	-ti-	0ryy
2AA/	-sma	4C/	-ſma	.
.	.	4.C/	in	.
4.AA/	in	.	.	.
.	.	8D/	re-	.
.	.	4.E/	-miſ-	.
8BB-/	re-	.	.	.
=124-	=124-	=124-	=124-	=124-
4.C/	-miſ-	.	.	0ryy
.	.	8F/	-si-	.
.	.	[4G/	-o-	.
8D/	-si-	.	.	.
!	!	!LO:LB:g=original	!	!
2E\	-o-	8G/L]	.	.
!	!	!LO:TX:t=P:problem:♯below	!	!
.	.	8F#X/	.	.
.	.	8G/	.	.
.	.	8A/J	.	.
2D/	-nem	2B\	-nem	.
4.C/	pec-	4A/	pec-	.
.	.	2A/	-ca-	.
8C/	-ca-	.	.	.
=125-	=125-	=125-	=125-	=125-
1BB	-to-	.	.	0ryy
.	.	4G/	.	.
.	.	2F#X/	-to-	.
!	!	!LO:N:acc=-	!	!
4E\	-r(um)	4Gn/	-rum	.
2E\	Et	2G/	Et	.
4C/	ex-	4c\	ex-	.
=126-	=126-	=126-	=126-	=126-
(2F\	-pe-	8A\L	-pe-	0ryy
.	.	8B\J	.	.
.	.	2c\	.	.
2G\)	.	.	.	.
.	.	4B\	.	.
2C/	-cto	4c\	-cto	.
.	.	4.e\	re-	.
4.c\	re-	.	.	.
.	.	8d\	-ſur-	.
.	.	4.c\	-re-	.
8B\	-ſur-	.	.	.
=127-	=127-	=127-	=127-	=127-
4.A\	-re-	.	.	0ryy
.	.	8B\J	-cti-	.
.	.	4.A/	-o-	.
!LO:SIC:v:t=custos F	!	!	!	!
8G\	-cti-	.	.	.
!LO:LB:g=original	!	!	!	!
4.F\	-o-	.	.	.
.	.	8G/	.	.
.	.	2F/	.	.
8E\	-nem	.	.	.
4D/	mor-	.	.	.
4C/	.	4E/	.	.
!	!	!LO:TX:t=P:problem:♯below	!	!
4BB/	-tu-	4F#X/	-nem	.
4AA/	.	4A/	mor-	.
=128-	=128-	=128-	=128-	=128-
!	!	!LO:TX:t=P:problem:♯below	!	!
1E	-o-	4G#X/	-tu-	0ryy
.	.	2A/	-o-	.
.	.	4G#/	.	.
2AA/	-rum	4A/	r(um)	.
!	!	!LO:SIC:v:t=custos G	!	!
.	.	4A/	Et	.
!	!	!LO:LB:g=original	!	!
2E\	Et	8Gny/L	Vi-	.
.	.	8A/	.	.
.	.	8B/	.	.
.	.	8c/J	.	.
=129-	=129-	=129-	=129-	=129-
8D\L	Vi-	4d\	.	0ryy
8E\	.	.	.	.
8F\	.	8A\	-tam	.
8G\J	.	8B\	ven-	.
4A\	.	4.c\	-tu-	.
8E\	-tam	.	.	.
8F\	Ven-	8c\	-ri	.
8G\	-tu-	4.B\	s(ae)-	.
8D\	-ri	.	.	.
2G\	s(ae)-	.	.	.
.	.	16A/LL	.	.
.	.	16G/JJ	.	.
.	.	4.A/	.	.
!LO:TX:t=P:problem:♯above	!	!	!	!
4F#X\	-cu-	.	.	.
.	.	8B\	.	.
=130-	=130-	=130-	=130-	=130-
2G\	-li	8c\L	.	0ryy
.	.	8B\	.	.
.	.	8G\	.	.
.	.	8A\J	.	.
2r	.	8B\L	.	.
.	.	8c\J	.	.
.	.	4.d\	.	.
2D/	Et	.	.	.
.	.	8e\	.	.
.	.	8f\L	.	.
.	.	16e\L	.	.
.	.	16d\JJ	.	.
8C/L	Vi-	2e\	.	.
8D/	.	.	.	.
8E/	.	.	.	.
8F/J	.	.	.	.
=131-	=131-	=131-	=131-	=131-
4G\	.	4.d\	.	0ryy
8D\	-tam	.	.	.
8E\	Ve(n)-	8d\	-cu-	.
4.F\	-tu-	2c\	-li	.
!LO:SIC:v:t=custos E	!	!	!	!
8F\	-ri	.	.	.
!LO:LB:g=original	!	!	!	!
4.E\	s(ae)-	4r	.	.
.	.	4G/	Ven-	.
8E\	-cu-	.	.	.
4D/	-li	8F/L	-tu-	.
.	.	8G/	.	.
4D/	Et	8A/	.	.
.	.	8B/J	.	.
=132-	=132-	=132-	=132-	=132-
8C/L	Vi-	4c\	-ri	0ryy
8D/	.	.	.	.
8E/	.	8G/	.	.
!	!	!LO:SIC:v:t=custos B	!	!
8F/J	.	8A/	.	.
!	!	!LO:LB:g=original	!	!
4G\	.	4.B\	s(ae)-	.
8BB/	-tam	.	.	.
8C/	Ven-	8B\	-cu-	.
4.D/	-tu-	2A/	-li	.
8D/	-ri	.	.	.
8C/L	s(ae)-	4r	.	.
8BB/	.	.	.	.
8C/	.	4A/	Ven-	.
8D/J	.	.	.	.
=133-	=133-	=133-	=133-	=133-
2E\	.	8G/L	-tu-	0ryy
.	.	8A/	.	.
.	.	8B/	.	.
.	.	8c/J	.	.
2D/	.	8d\L	.	.
.	.	8e\	.	.
.	.	8f\	.	.
.	.	8d\J	.	.
4.C/	.	4.e\	.	.
16BB/LL	.	16d\LL	-ri	.
16AA/JJ	.	16c\JJ	.	.
4.BB/	.	4.d\	s(ae)-	.
8BB/	-cu-	8d\	-cu-	.
=134-	=134-	=134-	=134-	=134-
2AA/	-li	2c\	-li	0ryy
4r	.	2e\	A-	.
4E\	A-	.	.	.
4G\	.	2d\	.	.
8D\L	.	.	.	.
8E\J	.	.	.	.
4F\	.	2c\	.	.
8C/L	.	.	.	.
8D/J	.	.	.	.
=135-	=135-	=135-	=135-	=135-
!LO:SIC:v:t=wykreślona grupa ósemek i półnuta	!	!	!	!
!LO:SIC:v:t=custos C	!	!	!	!
2E\	.	2B\	.	0ryy
!LO:LB:g=original	!	!	!	!
4AA/	-men	2A/	-men	.
4A\	A-	.	.	.
2G\	.	4r	.	.
.	.	4B\	A-	.
2F\	.	4d\	.	.
.	.	8A\L	.	.
.	.	8B\J	.	.
=136-	=136-	=136-	=136-	=136-
2E\	.	4c\	.	0ryy
.	.	4G/	.	.
2D/	.	8F/L	.	.
.	.	8G/	.	.
.	.	8A/	.	.
.	.	8B/J	.	.
8C/L	.	2.c\	.	.
8D/	.	.	.	.
8E/	.	.	.	.
8F/J	.	.	.	.
4G\	.	.	.	.
4GG/	-men	2B\	.	.
=137-	=137-	=137-	=137-	=137-
*	*ij	*	*	*
8AA/L	A-	.	.	0ryy
8BB/	.	.	.	.
8C/	.	2A/	.	.
8AA/J	.	.	.	.
8BB/L	.	.	.	.
8GG/	.	.	.	.
8BB/	.	2G/	.	.
8C/J	.	.	.	.
4D/	-men	.	.	.
!	!	!LO:SIC:v:t=custos E	!	!
4A\	A-	4F/	.	.
!	!	!LO:LB:g=original	!	!
2G\	.	2E/	.	.
=138-	=138-	=138-	=138-	=138-
2F\	.	4D/	.	0ryy
.	.	4A/	.	.
2E\	.	2G/	.	.
8D\L	.	2F/	-men	.
8E\	.	.	.	.
8F\	.	.	.	.
8G\J	.	.	.	.
8A\L	.	4r	.	.
8E\J	.	.	.	.
*	*	*	*ij	*
2A\	.	4e\	A-	.
=139-	=139-	=139-	=139-	=139-
.	.	2d\	.	0ryy
4G#X\	.	.	.	.
!LO:SIC:v:t=custos E	!	!	!	!
2A\	.	4.c\	.	.
.	.	16B\LL	.	.
.	.	16A\JJ	.	.
!LO:PB:g=original	!	!	!	!
2E\	.	8B\L	.	.
.	.	8A\	.	.
.	.	8B\	.	.
.	.	8c\J	.	.
2D/	.	4d\	.	.
.	.	8A\L	.	.
.	.	8B\J	.	.
=140-	=140-	=140-	=140-	=140-
2C/	.	4c\	.	0ryy
.	.	8G/L	.	.
.	.	8A/J	.	.
2BB/	.	4B\	.	.
.	.	8F#X/L	.	.
.	.	8G/J	.	.
2AA/	.	8A/L	.	.
.	.	8B/	.	.
.	.	8c/	.	.
.	.	8d/J	.	.
2GG#X/	.	4e\	.	.
.	.	4d\	.	.
=141-	=141-	=141-	=141-	=141-
1AA	.	4c\	.	0ryy
.	.	4B\	-men	.
.	.	2A/	A-	.
1E;	-men	1G#X;	-men	.
==	==	==	==	==
*-	*-	*-	*-	*-
!!!system-decoration: [(s1,s2,s3)]
!!!RDF**kern: > = above
!!!RDF**kern: < = below
!!!EED: Leszek Kubiak
!!!EST: 2021-03-23
!!!ENC: Andrzej Borzym
!!!END: 2021-03-09
